X:13043
T:Men of Harlech
R:March
C:Trad. 1794
O:Wales
Z:Paul Hardy's Session Tunebook 2015 (see www.paulhardy.net). Creative Commons cc by-nc-sa licenced.
M:4/4
L:1/8
Q:1/4=180
K:G
"G"G3 F "C"E3 F|"G"G2 A2 B2 G2|"Am"c2 B2 A2 G2|"D"F2 E2 F2 D2|"G"G3 F "C"E3 F|"G"G2 A2 B2 e2|"D"d B3 A3 B|"G"G4 z4:|
"D"A3 G F3 G|A2 A2 z4|"G"d3 c B3 c|d2 d2 z4|d3 c B3 c|d3 c B3 c|de dc BA Bc|d2 d2 z4|
"C"e2 e2 "G"d2 d2|"D7"c2 c2 "G"B2 B2|"D"A2 (cB) A2 G2|F2 E2 F2 D2|"G"G3 F "C"E3 F|"G"G2 A2 B2 e2|"D"d B3 A3 B|"G"G4 z4|]

